public/assets/svgs/design.svg

<svg height="255" viewBox="0 0 255 255" width="255" xmlns="http://www.w3.org/2000/svg"><g fill="none" fill-rule="evenodd" transform="translate(49 33)"><path d="m156.351 53.022v.503c-1.323.675-2.769 1.012-4.214 1.012-1.446 0-2.892-.338-4.215-1.012v102.75c1.323.674 2.769 1.012 4.215 1.012 1.445 0 2.891-.337 4.214-1.012.001-5.3.001-103.251.001-103.251z" fill="#e5b2ba"/><path d="m133.384 187.846c0 .549-.446.995-.993.995h-130.341c-.551 0-.996-.446-.996-.995v-185.639c0-.55.445-.995.996-.995h130.341c.547 0 .993.445.993.995z" fill="#fff"/><path d="m132.384 2.207-130.334.005.004 185.634 130.331-.005zm.007 185.634v1zm0 2h-130.341c-1.101 0-1.996-.895-1.996-1.995v-185.639c0-1.1.895-1.995 1.996-1.995h130.341c1.098 0 1.993.895 1.993 1.995v185.639c0 1.1-.895 1.995-1.993 1.995z" fill="#5e6977"/><path d="m133.384 11.812v-9.605c0-.55-.446-.995-.993-.995h-130.341c-.551 0-.996.445-.996.995v9.605z" fill="#6ca3bb"/><path d="m2.054 10.812h130.33v-8.605l-130.334.005zm131.33 2h-132.33c-.553 0-1-.448-1-1v-9.605c0-1.1.895-1.995 1.996-1.995h130.341c1.098 0 1.993.895 1.993 1.995v9.605c0 .552-.447 1-1 1z" fill="#5e6977"/><path d="m1.054 165.708v22.138c0 .55.445.995.996.995h130.341c.547 0 .993-.445.993-.995v-22.138z" fill="#e8e9ea"/><path d="m2.054 166.708v21.138l130.331-.005-.001-21.133zm130.337 21.133v1zm0 2h-130.341c-1.101 0-1.996-.895-1.996-1.995v-22.138c0-.553.447-1 1-1h132.33c.553 0 1 .447 1 1v22.138c0 1.1-.895 1.995-1.993 1.995z" fill="#5e6977"/><path d="m1.054 96.365h132.33v-50.041h-132.33z" fill="#aebfc6"/><path d="m2.054 95.365h130.33v-48.041h-130.33zm131.33 2h-132.33c-.553 0-1-.448-1-1v-50.041c0-.552.447-1 1-1h132.33c.553 0 1 .448 1 1v50.041c0 .552-.447 1-1 1z" fill="#5e6977"/><path d="m31.266 66.536h71.906v-4.722h-71.906z" fill="#fff"/><path d="m32.266 65.536h69.906v-2.722h-69.906zm70.906 2h-71.906c-.553 0-1-.448-1-1v-4.722c0-.552.447-1 1-1h71.906c.553 0 1 .448 1 1v4.722c0 .552-.447 1-1 1z" fill="#5e6977"/><path d="m18.674 6.418c0 .937-.76 1.697-1.695 1.697-.938 0-1.698-.76-1.698-1.697 0-.938.76-1.695 1.698-1.695.935 0 1.695.757 1.695 1.695" fill="#fff"/><path d="m16.979 5.723c-.385 0-.698.312-.698.695 0 .384.313.697.698.697.383 0 .695-.313.695-.697 0-.383-.312-.695-.695-.695zm0 3.392c-1.488 0-2.698-1.21-2.698-2.697 0-1.486 1.21-2.695 2.698-2.695 1.486 0 2.695 1.209 2.695 2.695 0 1.487-1.209 2.697-2.695 2.697z" fill="#5e6977"/><path d="m13.134 6.418c0 .937-.758 1.697-1.695 1.697s-1.695-.76-1.695-1.697c0-.938.758-1.695 1.695-1.695s1.695.757 1.695 1.695" fill="#fff"/><path d="m11.439 5.723c-.383 0-.695.312-.695.695 0 .384.312.697.695.697s.695-.313.695-.697c0-.383-.312-.695-.695-.695zm0 3.392c-1.486 0-2.695-1.21-2.695-2.697 0-1.486 1.209-2.695 2.695-2.695s2.695 1.209 2.695 2.695c0 1.487-1.209 2.697-2.695 2.697z" fill="#5e6977"/><path d="m7.598 6.418c0 .937-.762 1.697-1.7 1.697s-1.695-.76-1.695-1.697c0-.938.757-1.695 1.695-1.695s1.7.757 1.7 1.695" fill="#fff"/><path d="m5.898 5.723c-.383 0-.695.312-.695.695 0 .384.312.697.695.697.386 0 .7-.313.7-.697 0-.383-.314-.695-.7-.695zm0 3.392c-1.486 0-2.695-1.21-2.695-2.697 0-1.486 1.209-2.695 2.695-2.695 1.489 0 2.7 1.209 2.7 2.695 0 1.487-1.211 2.697-2.7 2.697z" fill="#5e6977"/><path d="m12.385 38.85h20.068v-2h-20.068z" fill="#5e6977"/><path d="m34.785 38.85h20.069v-2h-20.069z" fill="#5e6977"/><path d="m57.185 38.85h20.067v-2h-20.067z" fill="#5e6977"/><path d="m79.584 38.85h20.068v-2h-20.068z" fill="#5e6977"/><path d="m101.984 38.85h20.068v-2h-20.068z" fill="#5e6977"/><path d="m122.709 176.535c0 1.516-1.229 2.743-2.746 2.743-1.514 0-2.742-1.227-2.742-2.743s1.228-2.744 2.742-2.744c1.517 0 2.746 1.228 2.746 2.744" fill="#fff"/><path d="m119.963 174.791c-.961 0-1.742.782-1.742 1.744 0 .961.781 1.743 1.742 1.743.963 0 1.746-.782 1.746-1.743 0-.962-.783-1.744-1.746-1.744zm0 5.487c-2.064 0-3.742-1.678-3.742-3.743 0-2.064 1.678-3.744 3.742-3.744 2.065 0 3.746 1.68 3.746 3.744 0 2.065-1.681 3.743-3.746 3.743z" fill="#5e6977"/><path d="m114.127 176.535c0 1.516-1.227 2.743-2.744 2.743-1.515 0-2.743-1.227-2.743-2.743s1.228-2.744 2.743-2.744c1.517 0 2.744 1.228 2.744 2.744" fill="#fff"/><path d="m111.383 174.791c-.961 0-1.743.782-1.743 1.744 0 .961.782 1.743 1.743 1.743.962 0 1.744-.782 1.744-1.743 0-.962-.782-1.744-1.744-1.744zm0 5.487c-2.065 0-3.743-1.678-3.743-3.743 0-2.064 1.678-3.744 3.743-3.744 2.064 0 3.744 1.68 3.744 3.744 0 2.065-1.68 3.743-3.744 3.743z" fill="#5e6977"/><path d="m105.546 176.535c0 1.516-1.228 2.743-2.745 2.743-1.515 0-2.742-1.227-2.742-2.743s1.227-2.744 2.742-2.744c1.517 0 2.745 1.228 2.745 2.744" fill="#fff"/><path d="m102.801 174.791c-.961 0-1.742.782-1.742 1.744 0 .961.781 1.743 1.742 1.743.962 0 1.745-.782 1.745-1.743 0-.962-.783-1.744-1.745-1.744zm0 5.487c-2.064 0-3.742-1.678-3.742-3.743 0-2.064 1.678-3.744 3.742-3.744 2.065 0 3.745 1.68 3.745 3.744 0 2.065-1.68 3.743-3.745 3.743z" fill="#5e6977"/><path d="m11.729 175.85h23.666v-2h-23.666z" fill="#5e6977"/><path d="m11.729 180.183h48.921v-2h-48.921z" fill="#5e6977"/><path d="m12.659 137.806h31.118v-31.12h-31.118z" fill="#6ca3bb"/><path d="m11.659 138.806h33.118v-33.12h-33.118zm2-2h29.118v-29.12h-29.118z" fill="#5e6977"/><path d="m43.715 106.75-30.993 30.992z" fill="#fff"/><path d="m13.429 138.449-1.414-1.414 30.993-30.992 1.414 1.414z" fill="#5e6977"/><path d="m43.715 137.742-30.993-30.992z" fill="#fff"/><path d="m43.008 138.449-30.993-30.992 1.414-1.414 30.993 30.992z" fill="#5e6977"/><path d="m11.855 144.85h23.667v-2h-23.667z" fill="#5e6977"/><path d="m11.855 149.183h32.922v-2h-32.922z" fill="#5e6977"/><path d="m11.855 153.516h29.667v-2h-29.667z" fill="#5e6977"/><path d="m11.855 157.849h23.667v-2h-23.667z" fill="#5e6977"/><path d="m51.659 137.806h31.118v-31.12h-31.118z" fill="#6ca3bb"/><path d="m50.659 138.806h33.118v-33.12h-33.118zm2-2h29.118v-29.12h-29.118z" fill="#5e6977"/><path d="m82.715 106.75-30.993 30.992z" fill="#fff"/><path d="m52.429 138.449-1.414-1.414 30.993-30.992 1.414 1.414z" fill="#5e6977"/><path d="m82.715 137.742-30.993-30.992z" fill="#fff"/><path d="m82.008 138.449-30.993-30.992 1.414-1.414 30.993 30.992z" fill="#5e6977"/><path d="m50.855 144.85h23.667v-2h-23.667z" fill="#5e6977"/><path d="m50.855 149.183h32.922v-2h-32.922z" fill="#5e6977"/><path d="m50.855 153.516h29.667v-2h-29.667z" fill="#5e6977"/><path d="m50.855 157.849h23.667v-2h-23.667z" fill="#5e6977"/><path d="m90.659 137.806h31.118v-31.12h-31.118z" fill="#6ca3bb"/><path d="m89.659 138.806h33.118v-33.12h-33.118zm2-2h29.118v-29.12h-29.118z" fill="#5e6977"/><path d="m121.715 106.75-30.993 30.992z" fill="#fff"/><path d="m91.429 138.449-1.414-1.414 30.993-30.992 1.414 1.414z" fill="#5e6977"/><path d="m121.715 137.742-30.993-30.992z" fill="#fff"/><g fill="#5e6977"><path d="m121.008 138.449-30.993-30.992 1.414-1.414 30.993 30.992z"/><path d="m89.855 144.85h23.667v-2h-23.667z"/><path d="m89.855 149.183h32.922v-2h-32.922z"/><path d="m89.855 153.516h29.667v-2h-29.667z"/><path d="m89.855 157.849h23.667v-2h-23.667z"/><path d="m25.553 74.517h83.332v-2h-83.332z"/><path d="m38.885 81.517h56.668v-2h-56.668z"/></g><path d="m73.885 25.517c0 3.681-2.985 6.666-6.666 6.666-3.682 0-6.667-2.985-6.667-6.666 0-3.683 2.985-6.667 6.667-6.667 3.681 0 6.666 2.984 6.666 6.667" fill="#e5b2ba"/><g fill="#5e6977"><path d="m67.219 19.85c-3.125 0-5.667 2.542-5.667 5.667 0 3.124 2.542 5.666 5.667 5.666 3.124 0 5.666-2.542 5.666-5.666 0-3.125-2.542-5.667-5.666-5.667zm0 13.333c-4.228 0-7.667-3.439-7.667-7.666 0-4.228 3.439-7.667 7.667-7.667 4.227 0 7.666 3.439 7.666 7.667 0 4.227-3.439 7.666-7.666 7.666zm-58.145 43.773-2.559-3.518c-.255-.351-.255-.826 0-1.177l2.559-3.518 1.617 1.176-2.131 2.931 2.131 2.929z"/><path d="m7.323 73.85h7.79v-2h-7.79z"/><path d="m125.363 76.956-1.617-1.177 2.131-2.929-2.131-2.931 1.617-1.176 2.559 3.519c.255.35.255.825 0 1.176z"/><path d="m119.323 73.85h7.79v-2h-7.79z"/><path d="m148.922 155.638c2.031.852 4.405.85 6.429 0 .001-9.664.001-97.616.001-102.41l-3.215-7.579-3.215 7.579zm3.215 2.649c-1.615 0-3.229-.388-4.669-1.121-.335-.17-.546-.515-.546-.891v-103.251c0-.134.027-.267.079-.39l4.215-9.937c.157-.369.519-.609.921-.609.401 0 .763.24.921.609l4.214 9.937c.052.123.08.256.08.39 0 0 0 97.951-.001 103.251 0 .376-.211.72-.546.891-1.437.733-3.051 1.121-4.668 1.121z"/><path d="m148.349 155.036h7.577v-2h-7.577z"/><path d="m152.137 55.422c-1.456 0-2.912-.338-4.24-1.014l.909-1.783c2.087 1.065 4.577 1.064 6.662 0l.908 1.783c-1.327.676-2.783 1.014-4.239 1.014m0-5.158c-.998 0-1.996-.232-2.907-.696l.909-1.782c1.252.638 2.745.639 3.995 0l.908 1.781c-.909.465-1.907.697-2.905.697"/></g></g></svg>

<svg xmlns="http://www.w3.org/2000/svg" width="255" height="255" viewBox="0 0 255 255">
  <g fill="none" fill-rule="evenodd" transform="translate(49 33)">
    <path fill="#E5B2BA" d="M156.351,53.022 C156.351,53.229 156.351,53.408 156.351,53.525 C155.028,54.2 153.582,54.537 152.137,54.537 C150.691,54.537 149.245,54.199 147.922,53.525 C147.922,60.955 147.922,151.191 147.922,156.275 C149.245,156.949 150.691,157.287 152.137,157.287 C153.582,157.287 155.028,156.95 156.351,156.275 C156.352,150.975 156.352,53.024 156.352,53.024 L156.351,53.022"/>
    <path fill="#FFF" d="M133.384,187.846 C133.384,188.395 132.938,188.841 132.391,188.841 L2.05,188.841 C1.499,188.841 1.054,188.395 1.054,187.846 L1.054,2.207 C1.054,1.657 1.499,1.212 2.05,1.212 L132.391,1.212 C132.938,1.212 133.384,1.657 133.384,2.207 L133.384,187.846"/>
    <path fill="#5E6977" d="M132.384,2.207 L2.05,2.212 L2.054,187.846 L132.385,187.841 L132.384,2.207 Z M132.391,187.841 L132.391,188.841 L132.391,187.841 Z M132.391,189.841 L2.05,189.841 C0.949,189.841 0.054,188.946 0.054,187.846 L0.054,2.207 C0.054,1.107 0.949,0.212 2.05,0.212 L132.391,0.212 C133.489,0.212 134.384,1.107 134.384,2.207 L134.384,187.846 C134.384,188.946 133.489,189.841 132.391,189.841 L132.391,189.841 Z"/>
    <path fill="#6CA3BB" d="M133.384,11.812 L133.384,2.207 C133.384,1.657 132.938,1.212 132.391,1.212 L2.05,1.212 C1.499,1.212 1.054,1.657 1.054,2.207 L1.054,11.812 L133.384,11.812"/>
    <path fill="#5E6977" d="M2.054,10.812 L132.384,10.812 L132.384,2.207 L2.05,2.212 L2.054,10.812 Z M133.384,12.812 L1.054,12.812 C0.501,12.812 0.054,12.364 0.054,11.812 L0.054,2.207 C0.054,1.107 0.949,0.212 2.05,0.212 L132.391,0.212 C133.489,0.212 134.384,1.107 134.384,2.207 L134.384,11.812 C134.384,12.364 133.937,12.812 133.384,12.812 L133.384,12.812 Z"/>
    <path fill="#E8E9EA" d="M1.054,165.708 L1.054,187.846 C1.054,188.396 1.499,188.841 2.05,188.841 L132.391,188.841 C132.938,188.841 133.384,188.396 133.384,187.846 L133.384,165.708 L1.054,165.708"/>
    <path fill="#5E6977" d="M2.054,166.708 L2.054,187.846 L132.385,187.841 L132.384,166.708 L2.054,166.708 Z M132.391,187.841 L132.391,188.841 L132.391,187.841 Z M132.391,189.841 L2.05,189.841 C0.949,189.841 0.054,188.946 0.054,187.846 L0.054,165.708 C0.054,165.155 0.501,164.708 1.054,164.708 L133.384,164.708 C133.937,164.708 134.384,165.155 134.384,165.708 L134.384,187.846 C134.384,188.946 133.489,189.841 132.391,189.841 L132.391,189.841 Z"/>
    <polygon fill="#AEBFC6" points="1.054 96.365 133.384 96.365 133.384 46.324 1.054 46.324"/>
    <path fill="#5E6977" d="M2.054,95.365 L132.384,95.365 L132.384,47.324 L2.054,47.324 L2.054,95.365 Z M133.384,97.365 L1.054,97.365 C0.501,97.365 0.054,96.917 0.054,96.365 L0.054,46.324 C0.054,45.772 0.501,45.324 1.054,45.324 L133.384,45.324 C133.937,45.324 134.384,45.772 134.384,46.324 L134.384,96.365 C134.384,96.917 133.937,97.365 133.384,97.365 L133.384,97.365 Z"/>
    <polygon fill="#FFF" points="31.266 66.536 103.172 66.536 103.172 61.814 31.266 61.814"/>
    <path fill="#5E6977" d="M32.266,65.536 L102.172,65.536 L102.172,62.814 L32.266,62.814 L32.266,65.536 Z M103.172,67.536 L31.266,67.536 C30.713,67.536 30.266,67.088 30.266,66.536 L30.266,61.814 C30.266,61.262 30.713,60.814 31.266,60.814 L103.172,60.814 C103.725,60.814 104.172,61.262 104.172,61.814 L104.172,66.536 C104.172,67.088 103.725,67.536 103.172,67.536 L103.172,67.536 Z"/>
    <path fill="#FFF" d="M18.674,6.418 C18.674,7.355 17.914,8.115 16.979,8.115 C16.041,8.115 15.281,7.355 15.281,6.418 C15.281,5.48 16.041,4.723 16.979,4.723 C17.914,4.723 18.674,5.48 18.674,6.418"/>
    <path fill="#5E6977" d="M16.979,5.723 C16.594,5.723 16.281,6.035 16.281,6.418 C16.281,6.802 16.594,7.115 16.979,7.115 C17.362,7.115 17.674,6.802 17.674,6.418 C17.674,6.035 17.362,5.723 16.979,5.723 Z M16.979,9.115 C15.491,9.115 14.281,7.905 14.281,6.418 C14.281,4.932 15.491,3.723 16.979,3.723 C18.465,3.723 19.674,4.932 19.674,6.418 C19.674,7.905 18.465,9.115 16.979,9.115 L16.979,9.115 Z"/>
    <path fill="#FFF" d="M13.134,6.418 C13.134,7.355 12.376,8.115 11.439,8.115 C10.502,8.115 9.744,7.355 9.744,6.418 C9.744,5.48 10.502,4.723 11.439,4.723 C12.376,4.723 13.134,5.48 13.134,6.418"/>
    <path fill="#5E6977" d="M11.439,5.723 C11.056,5.723 10.744,6.035 10.744,6.418 C10.744,6.802 11.056,7.115 11.439,7.115 C11.822,7.115 12.134,6.802 12.134,6.418 C12.134,6.035 11.822,5.723 11.439,5.723 Z M11.439,9.115 C9.953,9.115 8.744,7.905 8.744,6.418 C8.744,4.932 9.953,3.723 11.439,3.723 C12.925,3.723 14.134,4.932 14.134,6.418 C14.134,7.905 12.925,9.115 11.439,9.115 L11.439,9.115 Z"/>
    <path fill="#FFF" d="M7.598,6.418 C7.598,7.355 6.836,8.115 5.898,8.115 C4.96,8.115 4.203,7.355 4.203,6.418 C4.203,5.48 4.96,4.723 5.898,4.723 C6.836,4.723 7.598,5.48 7.598,6.418"/>
    <path fill="#5E6977" d="M5.898,5.723 C5.515,5.723 5.203,6.035 5.203,6.418 C5.203,6.802 5.515,7.115 5.898,7.115 C6.284,7.115 6.598,6.802 6.598,6.418 C6.598,6.035 6.284,5.723 5.898,5.723 Z M5.898,9.115 C4.412,9.115 3.203,7.905 3.203,6.418 C3.203,4.932 4.412,3.723 5.898,3.723 C7.387,3.723 8.598,4.932 8.598,6.418 C8.598,7.905 7.387,9.115 5.898,9.115 L5.898,9.115 Z"/>
    <polygon fill="#5E6977" points="12.385 38.85 32.453 38.85 32.453 36.85 12.385 36.85"/>
    <polygon fill="#5E6977" points="34.785 38.85 54.854 38.85 54.854 36.85 34.785 36.85"/>
    <polygon fill="#5E6977" points="57.185 38.85 77.252 38.85 77.252 36.85 57.185 36.85"/>
    <polygon fill="#5E6977" points="79.584 38.85 99.652 38.85 99.652 36.85 79.584 36.85"/>
    <polygon fill="#5E6977" points="101.984 38.85 122.052 38.85 122.052 36.85 101.984 36.85"/>
    <path fill="#FFF" d="M122.709,176.535 C122.709,178.051 121.48,179.278 119.963,179.278 C118.449,179.278 117.221,178.051 117.221,176.535 C117.221,175.019 118.449,173.791 119.963,173.791 C121.48,173.791 122.709,175.019 122.709,176.535"/>
    <path fill="#5E6977" d="M119.963,174.791 C119.002,174.791 118.221,175.573 118.221,176.535 C118.221,177.496 119.002,178.278 119.963,178.278 C120.926,178.278 121.709,177.496 121.709,176.535 C121.709,175.573 120.926,174.791 119.963,174.791 Z M119.963,180.278 C117.899,180.278 116.221,178.6 116.221,176.535 C116.221,174.471 117.899,172.791 119.963,172.791 C122.028,172.791 123.709,174.471 123.709,176.535 C123.709,178.6 122.028,180.278 119.963,180.278 L119.963,180.278 Z"/>
    <path fill="#FFF" d="M114.127,176.535 C114.127,178.051 112.9,179.278 111.383,179.278 C109.868,179.278 108.64,178.051 108.64,176.535 C108.64,175.019 109.868,173.791 111.383,173.791 C112.9,173.791 114.127,175.019 114.127,176.535"/>
    <path fill="#5E6977" d="M111.383,174.791 C110.422,174.791 109.64,175.573 109.64,176.535 C109.64,177.496 110.422,178.278 111.383,178.278 C112.345,178.278 113.127,177.496 113.127,176.535 C113.127,175.573 112.345,174.791 111.383,174.791 Z M111.383,180.278 C109.318,180.278 107.64,178.6 107.64,176.535 C107.64,174.471 109.318,172.791 111.383,172.791 C113.447,172.791 115.127,174.471 115.127,176.535 C115.127,178.6 113.447,180.278 111.383,180.278 L111.383,180.278 Z"/>
    <path fill="#FFF" d="M105.546,176.535 C105.546,178.051 104.318,179.278 102.801,179.278 C101.286,179.278 100.059,178.051 100.059,176.535 C100.059,175.019 101.286,173.791 102.801,173.791 C104.318,173.791 105.546,175.019 105.546,176.535"/>
    <path fill="#5E6977" d="M102.801,174.791 C101.84,174.791 101.059,175.573 101.059,176.535 C101.059,177.496 101.84,178.278 102.801,178.278 C103.763,178.278 104.546,177.496 104.546,176.535 C104.546,175.573 103.763,174.791 102.801,174.791 Z M102.801,180.278 C100.737,180.278 99.059,178.6 99.059,176.535 C99.059,174.471 100.737,172.791 102.801,172.791 C104.866,172.791 106.546,174.471 106.546,176.535 C106.546,178.6 104.866,180.278 102.801,180.278 L102.801,180.278 Z"/>
    <polygon fill="#5E6977" points="11.729 175.85 35.395 175.85 35.395 173.85 11.729 173.85"/>
    <polygon fill="#5E6977" points="11.729 180.183 60.65 180.183 60.65 178.183 11.729 178.183"/>
    <polygon fill="#6CA3BB" points="12.659 137.806 43.777 137.806 43.777 106.686 12.659 106.686"/>
    <path fill="#5E6977" d="M11.659,138.806 L44.777,138.806 L44.777,105.686 L11.659,105.686 L11.659,138.806 Z M13.659,136.806 L42.777,136.806 L42.777,107.686 L13.659,107.686 L13.659,136.806 Z"/>
    <polyline fill="#FFF" points="43.715 106.75 12.722 137.742 43.715 106.75"/>
    <polyline fill="#5E6977" points="13.429 138.449 12.015 137.035 43.008 106.043 44.422 107.457 13.429 138.449"/>
    <polyline fill="#FFF" points="43.715 137.742 12.722 106.75 43.715 137.742"/>
    <polyline fill="#5E6977" points="43.008 138.449 12.015 107.457 13.429 106.043 44.422 137.035 43.008 138.449"/>
    <polygon fill="#5E6977" points="11.855 144.85 35.522 144.85 35.522 142.85 11.855 142.85"/>
    <polygon fill="#5E6977" points="11.855 149.183 44.777 149.183 44.777 147.183 11.855 147.183"/>
    <polygon fill="#5E6977" points="11.855 153.516 41.522 153.516 41.522 151.516 11.855 151.516"/>
    <polygon fill="#5E6977" points="11.855 157.849 35.522 157.849 35.522 155.849 11.855 155.849"/>
    <polygon fill="#6CA3BB" points="51.659 137.806 82.777 137.806 82.777 106.686 51.659 106.686"/>
    <path fill="#5E6977" d="M50.659,138.806 L83.777,138.806 L83.777,105.686 L50.659,105.686 L50.659,138.806 Z M52.659,136.806 L81.777,136.806 L81.777,107.686 L52.659,107.686 L52.659,136.806 Z"/>
    <polyline fill="#FFF" points="82.715 106.75 51.722 137.742 82.715 106.75"/>
    <polyline fill="#5E6977" points="52.429 138.449 51.015 137.035 82.008 106.043 83.422 107.457 52.429 138.449"/>
    <polyline fill="#FFF" points="82.715 137.742 51.722 106.75 82.715 137.742"/>
    <polyline fill="#5E6977" points="82.008 138.449 51.015 107.457 52.429 106.043 83.422 137.035 82.008 138.449"/>
    <polygon fill="#5E6977" points="50.855 144.85 74.522 144.85 74.522 142.85 50.855 142.85"/>
    <polygon fill="#5E6977" points="50.855 149.183 83.777 149.183 83.777 147.183 50.855 147.183"/>
    <polygon fill="#5E6977" points="50.855 153.516 80.522 153.516 80.522 151.516 50.855 151.516"/>
    <polygon fill="#5E6977" points="50.855 157.849 74.522 157.849 74.522 155.849 50.855 155.849"/>
    <polygon fill="#6CA3BB" points="90.659 137.806 121.777 137.806 121.777 106.686 90.659 106.686"/>
    <path fill="#5E6977" d="M89.659,138.806 L122.777,138.806 L122.777,105.686 L89.659,105.686 L89.659,138.806 Z M91.659,136.806 L120.777,136.806 L120.777,107.686 L91.659,107.686 L91.659,136.806 Z"/>
    <polyline fill="#FFF" points="121.715 106.75 90.722 137.742 121.715 106.75"/>
    <polyline fill="#5E6977" points="91.429 138.449 90.015 137.035 121.008 106.043 122.422 107.457 91.429 138.449"/>
    <polyline fill="#FFF" points="121.715 137.742 90.722 106.75 121.715 137.742"/>
    <polyline fill="#5E6977" points="121.008 138.449 90.015 107.457 91.429 106.043 122.422 137.035 121.008 138.449"/>
    <polygon fill="#5E6977" points="89.855 144.85 113.522 144.85 113.522 142.85 89.855 142.85"/>
    <polygon fill="#5E6977" points="89.855 149.183 122.777 149.183 122.777 147.183 89.855 147.183"/>
    <polygon fill="#5E6977" points="89.855 153.516 119.522 153.516 119.522 151.516 89.855 151.516"/>
    <polygon fill="#5E6977" points="89.855 157.849 113.522 157.849 113.522 155.849 89.855 155.849"/>
    <polygon fill="#5E6977" points="25.553 74.517 108.885 74.517 108.885 72.517 25.553 72.517"/>
    <polygon fill="#5E6977" points="38.885 81.517 95.553 81.517 95.553 79.517 38.885 79.517"/>
    <path fill="#E5B2BA" d="M73.885,25.517 C73.885,29.198 70.9,32.183 67.219,32.183 C63.537,32.183 60.552,29.198 60.552,25.517 C60.552,21.834 63.537,18.85 67.219,18.85 C70.9,18.85 73.885,21.834 73.885,25.517"/>
    <path fill="#5E6977" d="M67.219 19.85C64.094 19.85 61.552 22.392 61.552 25.517 61.552 28.641 64.094 31.183 67.219 31.183 70.343 31.183 72.885 28.641 72.885 25.517 72.885 22.392 70.343 19.85 67.219 19.85zM67.219 33.183C62.991 33.183 59.552 29.744 59.552 25.517 59.552 21.289 62.991 17.85 67.219 17.85 71.446 17.85 74.885 21.289 74.885 25.517 74.885 29.744 71.446 33.183 67.219 33.183L67.219 33.183zM9.074 76.956L6.515 73.438C6.26 73.087 6.26 72.612 6.515 72.261L9.074 68.743 10.691 69.919 8.56 72.85 10.691 75.779 9.074 76.956"/>
    <polygon fill="#5E6977" points="7.323 73.85 15.113 73.85 15.113 71.85 7.323 71.85"/>
    <path fill="#5E6977" d="M125.363,76.956 L123.746,75.779 L125.877,72.85 L123.746,69.919 L125.363,68.743 L127.922,72.262 C128.177,72.612 128.177,73.087 127.922,73.438 L125.363,76.956"/>
    <polygon fill="#5E6977" points="119.323 73.85 127.113 73.85 127.113 71.85 119.323 71.85"/>
    <path fill="#5E6977" d="M148.922,155.638 C150.953,156.49 153.327,156.488 155.351,155.638 C155.352,145.974 155.352,58.022 155.352,53.228 L152.137,45.649 L148.922,53.228 L148.922,155.638 Z M152.137,158.287 C150.522,158.287 148.908,157.899 147.468,157.166 C147.133,156.996 146.922,156.651 146.922,156.275 L146.922,53.024 C146.922,52.89 146.949,52.757 147.001,52.634 L151.216,42.697 C151.373,42.328 151.735,42.088 152.137,42.088 C152.538,42.088 152.9,42.328 153.058,42.697 L157.272,52.634 C157.324,52.757 157.352,52.89 157.352,53.024 C157.352,53.024 157.352,150.975 157.351,156.275 C157.351,156.651 157.14,156.995 156.805,157.166 C155.368,157.899 153.754,158.287 152.137,158.287 L152.137,158.287 Z"/>
    <polygon fill="#5E6977" points="148.349 155.036 155.926 155.036 155.926 153.036 148.349 153.036"/>
    <path fill="#5E6977" d="M152.137 55.422C150.681 55.422 149.225 55.084 147.897 54.408L148.806 52.625C150.893 53.69 153.383 53.689 155.468 52.625L156.376 54.408C155.049 55.084 153.593 55.422 152.137 55.422M152.137 50.264C151.139 50.264 150.141 50.032 149.23 49.568L150.139 47.786C151.391 48.424 152.884 48.425 154.134 47.786L155.042 49.567C154.133 50.032 153.135 50.264 152.137 50.264"/>
  </g>
</svg>
